X: 5
T: Farewell To Chernobyl
R: reel
M: 4/4
L: 1/8
K: Dmin
D2 DF ADFA | DFAF GFEC | A,2 A,C EA,CE | A,CEG AcGF |D2 (3FED ADFA | D2 AD (3EFG A=B | c2 Gc EcGc | fed^c d2 :|d2 fd gdfd | (3ddd fd gfef | d2 fd gdfd | e2 Ac ac (3gfe |d2 fd gdfd | d2 fd gfeg | eaa^g a2 af | e2 ef ed^cA |d2 (3fed gd (3fed | d2 fd gfec | d2 (3fed g2 fc | acgc fcec |d2 fd Adfd | (3BBB fd Bdfd | c2 ge cegc | acgc fc ||


Tune 767	Setting 13887

